X: 14469
T: Gan Ainm
R: jig
M: 6/8
K: Amixolydian
eaa gag|~e3 ded|cAG ~E3|EGB =cBA|
eaa gag|~e3 ded|cAG ~E3|GA=c ~A3:|
=cAG A^ce|faf gec|~d3 =cAG|EGB =cBA|
faf g2a|bge fga|gec ~d3|GA=c ~A3:|

